X: 2
T: The Golden Stud
R: reel
M: 4/4
L: 1/8
K: Emin
|:EFGE FGAF|GABG ABcA |BAGB AGFA |GEFD E2E2 :|
|:c2 AB cBAc |B2 AB BAGB |A2 FG AGFA |GE FD E2 E2 :|


Tune 4740	Setting 28365

